X:1
T:Title
%%score [ 1 2 3 4 ]
L:1/8
Q:1/4=120
M:2/2
K:C
V:1 treble nm="Soprano" snm="S"
V:2 treble nm="Contralto" snm="C"
V:3 treble-8 nm="Tenor" snm="T"
V:4 bass nm="Bajo" snm="B"
V:1
 z8 | e2 e2 e4- | e4 !breath!B4 | d8- | d4 c4 | B8 | z8 | B2 A2 B2 c2 | d8 | c8 | B8- | B8 | z8 | %13
w: |Oh Hilf, Chri-|* ste,|Got-|* tes|Sohn,||durch dein bit- ter|Lei-||den,|_||
 z4 A2 B2 | c6 A2 | A2 G2 F4 | E8 | z4 G2 A2 | D2 E2 G3 G | E4 z4 | F2 G2 A4 | ^G2 A4 G2 | %22
w: daß wir|dir stets|un- * ter-|tan,|daß wir|dir stets un- ter-|tan,|all Un- tu-|gend mei- *|
 !breath!A4 A2 E2 | G2 F2 E2 E2 | D4 z4 | A2 A2 B2 d2 | d2 ^c2 d4 | z8 | F2 G2 A2 B2 | %29
w: den, dei- nem|Tod und sein Ur-|sach,|dei- nem Tod und|sein Ur- sach,||frucht- bar- lich be-|
 c4 !breath!G4 | G2 A2 B2 c2 | d8 | c8- | c4 B2 A2 | !breath!B4 B2 c2 | d2 B2 c2 BA | G8 | %37
w: den- ken,|frucht- bar- lich be-|den-|||ken, da- für,|wie- wohl arm und _|schwach,|
 z4 G2 A2 | B2 A2 A3 ^G | !breath!A4 A2 B2 | c2 A2 A2 GF | E2 z2 c2 d2 | e2 d2 d3 ^c | !breath!d8 | %44
w: dir Dank-|op- fer schen- *|ken, da- für,|wie- wohl arm und _|schwach, dir Dank-|op- fer schen- *|ken,|
 A2 B2 c2 A2 | A2 GF E2 z2 | A2 B2 c2 e2 | c3 B A4 | !fermata!^G8 |] %49
w: da- für, wie- wohl|arm und _ schwach,|dir Dank- op- fer|schen- * *|ken.|
V:2
 E2 E2 E4- | E4 !breath!A,4 | G,2 G,2 D4- | D4 D4 | B,4 E4 | !breath!E8 | E2 D2 E2 F2 | G6 FE | %8
w: Oh Hilf, Chri-|* ste,|Oh Hilf, Chri-|* ste,|Got- tes|Sohn,|durch dein bit- ter|Lei- * *|
 F8 | !breath!E2 D2 E2 ^F2 | G8- | G4 ^F2 E2 | ^F4 E4 | z8 | C2 D2 E2 C2 | F2 E4 D2 | %16
w: |den, dein bit- ter|Lei-||* den,||daß wir dir stets|un- * ter-|
 !breath!E4 E2 F2 | G2 E2 E2 DC | G3 G !breath!D4 | G2 F2 E4 | !breath!D4 C2 D2 | E2 E2 E4 | %22
w: tan, daß wir|dir stets un- * *|* ter- tan,|all Un- tu-|gend, all Un-|tu- gend mei-|
 !breath!E4 C2 A,2 | B,2 D2 D2 ^C2 | !breath!D4 A2 E2 | ^F4 G2 =F2 | E4 D4 | z8 | D2 E2 F2 G2 | %29
w: den, dei- nem|Tod und sein Ur-|sach, dei- nem|Tod und sein|Ur- sach,||frucht- bar- lich be-|
 A4 !breath!E4 | E2 F2 G2 E2 | F8 | E6 F2 | G8 | G8- | !breath!G4 E2 F2 | G2 E2 E2 DC | %37
w: den- ken,|frucht- bar- lich be-|den-|||ken,|_ da- für,|wie- wohl arm und _|
 B,2 z2 E2 D2 | B,2 E2 E4 | !breath!E4 F2 G2 | A2 F2 F2 ED | ^C2 z2 E2 D2 | A,2 F2 E4 | %43
w: schwach, dir Dank-|op- fer schen-|ken, da- für,|wie- wohl arm und _|schwach, dir Dank-|op- fer schen-|
 !breath!D8 | F2 G2 A2 E2 | EF D2 C2 z2 | C2 D2 E2 E2 | E8 | !fermata!E8 |] %49
w: ken,|da- für, wie- wohl|arm _ und schwach,|dir Dank- op- fer|schen-|ken.|
V:3
 z4 c2 c2 | c8 | !breath!B8 | B4 A4 | ^G4 A4- | A4 ^G4 | A6 GF | E8 | z8 | c2 B2 c2 d2 | e8- | %11
w: Oh Hilf,|Chri-|ste,|Chri- ste,|Got- *|* tes|Sohn, _ _|_||durch dein bit- ter|Lei-|
 e4 !breath!^d4 | B2 A2 ^G4 | A2 G2 F2 ED | E2 F2 A4 | z8 | z4 c2 d2 | e2 B2 c2 BA | B2 c4 B2 | %19
w: * den,|daß wir dir,|daß wir dir stets _|un- ter- tan,||daß wir|dir stets un- * *|* * ter-|
 !breath!c4 G2 A2 | B4 !breath!A2 B2 | c2 c2 B4 | A8 | z4 A2 E2 | G2 F2 E2 E2 | D4 z4 | z4 A2 A2 | %27
w: tan, all Un-|tu- gend, Un-|tu- gend mei-|den,|dei- nem|Tod und sein Ur-|sach,|dei- nem|
 B2 d2 d2 ^c2 | d4 z4 | A2 B2 c2 d2 | e8 | !breath!d4 A4- | A2 B2 c2 d2 | e4 d2 c2 | d8- | %35
w: Tod und sein Ur-|sach,|frucht- bar- lich be-|den-|ken, frucht-|* bar- lich be-|den- * *|ken,|
 !breath!d4 c2 d2 | e2 B2 c2 BA | ^G2 z2 B2 A2 | E2 c2 B4 | A4 z4 | z4 F2 G2 | A2 _B2 A2 =B2 | %42
w: _ da- für,|wie- wohl arm und _|schwach, dir Dank-|op- fer schen-|ken,|dir Dank-|op- fer, dir Dank-|
 ^c2 d2 A4 | !breath!D8 | d2 d2 e2 c2 | c2 BA G2 z2 | e2 d2 c2 B2 | A3 B c4 | !fermata!B8 |] %49
w: op- fer schen-|ken,|da- für, wie- wohl|arm und _ schwach,|dir Dank- op- fer|schen- * *|ken.|
V:4
 z4 A,2 A,2 | A,8 | !breath!E,4 G,4- | G,4 F,4 | E,8- | E,8 | z8 | z8 | D,2 E,2 F,2 G,2 | A,4 A,4 | %10
w: Oh Hilf,|Chri-|ste, Got-|* tes|Sohn,|_|||durch dein bit- ter|Lei- den,|
 E,2 ^F,2 G,2 A,2 | B,4 B,,4 | z4 E,2 D,2 | ^C,2 C,2 D,2 =C,B,, | A,,4 z4 | z4 A,2 B,2 | %16
w: durch dein bit- ter|Lei- den,|daß wir|dir stets un- ter- *|tan,|daß wir|
 C2 A,2 A,2 G,F, | E,6 F,2 | G,4 G,4 | !breath!C,8 | D,2 E,2 F,4 | E,4 E,4 | A,,8 | z4 A,,2 A,,2 | %24
w: dir stets un- ter- *|tan, stets|un- ter-|tan,|all Un- tu-|gend mei-|den,|dei- nem|
 B,,2 D,2 D,2 ^C,2 | D,4 z4 | A,2 E,2 ^F,4 | G,2 F,2 E,4 | D,8 | z8 | z8 | D,2 E,2 F,2 G,2 | A,8 | %33
w: Tod und sein Ur-|sach,|dei- nem Tod|und sein Ur-|sach,|||frucht- bar- lich be-|den-|
 G,8- | !breath!G,4 G,2 A,2 | B,2 G,2 A,2 G,F, | E,4 C,2 D,2 | E,2 !breath!F,2 E,2 ^F,2 | %38
w: ken,|_ da- für,|wie- wohl arm und _|schwach, dir Dank-|op- fer, dir Dank-|
 ^G,2 A,2 E,4 | A,,4 z4 | z8 | z8 | z8 | D,2 E,2 F,2 D,2 | D,2 C,B,, !breath!A,,4 | %45
w: op- fer schen-|ken,||||da- für, wie- wohl|arm und _ schwach,|
 A,,2 B,,2 C,2 E,2 | A,6 ^G,2 | A,8 | !fermata!E,8 |] %49
w: dir Dank- op- fer|schen- *||ken.|

